X:51
T:When You Are Lonely
C:Arr. Mike Compton
S:Jim Coon to CoMandoList TOW
M:4/4
L:1/8
Q:1/8=400
K:G
G|"G"G,B,DG Bdgb|gd2c BG2G,|G,B,DG BGdB|g2[gB][gB] [gB][gB][g2B2]|!
G,B,DG Bdgb|gd2c BG2G|"D"DFAd fa2f|d2dd cAFD|!
"G"G,4 B,DED|G4 Bd2d|g2=fd c2B2|G2[B2G2] GB2G|!
"D"DFAd fa2f|d2dd B/cB/c3/2A/|"G"G2GG E/=FE/F3/2D/|G,8||!
